X: 33677
T: Rambling Thatcher, The
R: reel
M: 4/4
K: Gmajor
DGGA BABc|d2 cA dBcA|DGGA BABd|eddc AGGF:|
g2 gf d2 eg|fefg af d2|gfga gfdg|efdc AG G2|
g2 gf d2 eg|fefg af d2|efdf efge|dBAc BG G2|

